src/assets/imgs/icons/operate/ic_leasing_big.svg

<?xml version="1.0" encoding="UTF-8"?>
<svg width="64px" height="64px" viewBox="0 0 64 64" version="1.1" xmlns="http://www.w3.org/2000/svg" xmlns:xlink="http://www.w3.org/1999/xlink">
    <!-- Generator: Sketch 50.2 (55047) - http://www.bohemiancoding.com/sketch -->
    <title>ic_leasing_big</title>
    <desc>Created with Sketch.</desc>
    <defs></defs>
    <g id="Page-1" stroke="none" stroke-width="1" fill="none" fill-rule="evenodd">
        <g id="00A_Export" transform="translate(-181.000000, -206.000000)">
            <g id="ic_leasing_big" transform="translate(181.000000, 206.000000)">
                <circle id="Oval-2" fill="#B4E0A8" cx="32" cy="32" r="32"></circle>
                <g id="shape" transform="translate(18.000000, 16.000000)" fill="#FFFFFF">
                    <path d="M2,10 L2,14 C2,20.618 7.382,26 14,26 C20.618,26 26,20.618 26,14 L26,10 L2,10 Z M14,28 C6.28,28 0,21.72 0,14 L0,9 C0,8.448 0.448,8 1,8 L27,8 C27.552,8 28,8.448 28,9 L28,14 C28,21.72 21.72,28 14,28 Z" id="Fill-1"></path>
                    <path d="M7,0 L7,0 C7.55228475,-1.01453063e-16 8,0.44771525 8,1 L8,8 L6,8 L6,1 C6,0.44771525 6.44771525,1.01453063e-16 7,0 Z" id="Rectangle-8"></path>
                    <path d="M21,0 L21,0 C21.5522847,-1.01453063e-16 22,0.44771525 22,1 L22,8 L20,8 L20,1 C20,0.44771525 20.4477153,1.01453063e-16 21,0 Z" id="Rectangle-8"></path>
                    <path d="M13,28 L15,28 L15,39 C15,39.5522847 14.5522847,40 14,40 L14,40 C13.4477153,40 13,39.5522847 13,39 L13,28 Z" id="Rectangle-8"></path>
                </g>
                <rect id="Overlay" x="0" y="0" width="64" height="64"></rect>
            </g>
        </g>
    </g>
</svg>

<?xml version="1.0" encoding="utf-8"?>
<!-- Generator: Adobe Illustrator 23.0.1, SVG Export Plug-In . SVG Version: 6.00 Build 0)  -->
<svg version="1.1" id="图层_1" xmlns="http://www.w3.org/2000/svg" xmlns:xlink="http://www.w3.org/1999/xlink" x="0px" y="0px"
	 viewBox="0 0 64 64" style="enable-background:new 0 0 64 64;" xml:space="preserve">
<style type="text/css">
	.st0{fill-rule:evenodd;clip-rule:evenodd;fill:#59D877;}
	.st1{fill-rule:evenodd;clip-rule:evenodd;fill:#FFFFFF;}
	.st2{fill:none;}
</style>
<title>ic_leasing_big</title>
<desc>Created with Sketch.</desc>
<circle id="Oval-2" class="st0" cx="32" cy="32" r="32"/>
<g id="shape" transform="translate(18.000000, 16.000000)">
	<path id="Fill-1" class="st1" d="M2,10v4c0,6.6,5.4,12,12,12s12-5.4,12-12v-4H2z M14,28C6.3,28,0,21.7,0,14V9c0-0.6,0.4-1,1-1h26
		c0.6,0,1,0.4,1,1v5C28,21.7,21.7,28,14,28z"/>
	<path id="Rectangle-8" class="st1" d="M7,0L7,0c0.6,0,1,0.4,1,1v7H6V1C6,0.4,6.4,0,7,0z"/>
	<path class="st1" d="M21,0L21,0c0.6,0,1,0.4,1,1v7h-2V1C20,0.4,20.4,0,21,0z"/>
	<path class="st1" d="M13,28h2v11c0,0.6-0.4,1-1,1l0,0c-0.6,0-1-0.4-1-1V28z"/>
</g>
<rect id="Overlay" y="0" class="st2" width="64" height="64"/>
</svg>
